X:1
T: The Bridge of Tilt
C:
R:Reel
Q: 232
K:D
M:4/4
L:1/8
|:FD F1/2G1/2A d2AG|FD F1/2G1/2A GE EG|FD F1/2G1/2A d2AB|df e1/2f1/2g fd dA|
FD F1/2G1/2A d2AG|FD F1/2G1/2A GE EG|FD F1/2G1/2A d2AB|df e1/2f1/2g fd dg|
fd ad bd ag|fd af ge eg|fd ad bd ag|ge ag fd dg|
fd ad bd ag|fd af ge eg|fa df gb eg|AB de fd d2:|
